src/topics/icons/mariadb.svg

<svg height="170" preserveAspectRatio="xMidYMid" viewBox="0 0 256 170" width="256" xmlns="http://www.w3.org/2000/svg"><path d="m250.391638.00446862c-3.949963.12621373-2.700775 1.26434026-11.235822 3.36474694-8.618833 2.1210301-19.146891 1.47064568-28.428048 5.36307399-27.705902 11.61933745-33.26472 51.33258415-58.452019 65.55864725-18.826879 10.6343587-37.821462 11.4825348-54.8987042 16.833826-11.2227876 3.5192024-23.4994882 10.7363532-33.6676522 19.4988112-7.8926215 6.803887-8.0986995 12.786261-16.3452454 21.319886-8.8207471 9.127753-35.0573533.154242-46.94816398 14.124424 3.83047273 3.873112 5.50978324 4.957954 13.05842968 3.953062-1.562847 2.96217-10.77551057 5.458473-8.97211833 9.81603 1.89755507 4.585084 24.16991333 7.693267 44.41642763-4.530475 9.4290746-5.692765 16.9393737-13.898064 31.6244964-15.856665 19.0031243-2.532802 40.8943974 1.62459 62.8936614 4.796974-3.261943 9.726132-9.811041 16.19423-15.057169 23.940455-1.624575 1.749652 3.262994 1.94578 8.838869.888329 10.030296-2.480214 17.258817-4.477176 24.828784-8.883286 9.299734-5.41383 10.708992-19.293771 22.11938-22.297047 6.35759 9.771614 23.64877 12.079861 34.378316 4.263978-9.414862-2.664987-12.016925-22.704968-8.83887-31.535665 3.010368-8.358816 5.98489-21.7299371 9.016535-32.7793231 3.254836-11.8666481 4.455614-26.8234715 8.394704-32.8681564 5.926432-9.0943382 12.474906-12.2173603 18.160166-17.3455744 5.685246-5.1282142 10.889074-10.1201231 10.718302-21.85453112-.055006-3.77958926-2.009243-5.88640611-5.604259-5.77152036z" fill="#002b64"/><path d="m8.59429122 159.000881c14.41792778 2.065186 23.18608588 0 34.76420488-5.021543 9.8512083-4.272505 19.3655625-13.080461 30.9991132-16.814283 17.085756-5.482053 35.8216717.007107 54.0857067 1.101528 4.447328.267209 8.866229.270052 13.228278-.204672 6.803885-4.18154 6.663175-19.823229 13.285131-21.255925-.194722 21.945268-9.191713 35.093952-18.600889 47.826187 19.830335-3.502146 31.696983-14.972244 39.711839-30.291292 2.431889-4.644892 4.508445-9.642273 6.344798-14.879858 2.838387 2.178892 1.229447 8.807955 2.656458 12.399645 13.65894-7.608356 21.480495-24.972693 26.659805-42.5345928 5.99231-20.3249573 8.445518-40.9057532 12.310103-46.9193823 3.772198-5.8700749 9.642273-9.4887702 15.000671-13.2467553 6.088959-4.272505 11.519844-8.7255183 12.45792-16.8668719-6.42155-.5941141-7.906835-2.0793995-8.856281-5.31575804-3.215039 1.81219025-6.171396 2.20021216-9.511511 2.29970496-2.898084.08812219-6.081853-.04121845-9.9706.35817407-32.160336 3.30316091-36.246647 38.74960211-56.860134 58.84430461-1.499498 1.4611228-3.121231 2.8241741-4.83535 4.1033673-7.218913 5.3797177-16.075194 9.2244037-24.21939 12.3371069-13.182795 5.0371783-25.716045 5.3953523-38.0844215 9.7431876-9.0794285 3.1908762-18.3052535 7.8201339-25.7629494 12.9241149-1.8647793 1.274929-3.6215378 2.581127-5.2375851 3.90296-4.3762618 3.580319-7.248761 7.552924-10.0274527 11.639235-2.8653926 4.211389-5.6327137 8.54359-9.8512083 12.68249-6.8337339 6.710079-32.3692712 1.957166-41.35915612 8.17973-1.0020346.692185-1.79797698 1.52366-2.33950207 2.521431 4.90499493 2.228638 8.18115059.861323 13.82381359 1.485286.7405107 5.354133-11.64207866 8.536481-9.81141118 11.002481z" fill="#fff"/><path d="m203.435102 120.426045c.383758 6.14297 3.949865 18.330838 7.0981 21.292881-6.16571 1.499498-16.787277-.977872-19.511958-5.327129 1.400006-6.279417 8.685721-12.020151 12.413858-15.965752z" fill="#fff"/><g fill="#002b64"><path d="m212.467627 22.9347869c4.552506 3.9527068 14.105236.7803079 12.398224-7.0838871-7.073938-.5855863-11.17162 1.8150328-12.398224 7.0838871z"/><path d="m244.207251 13.744495c-1.21097 2.5399091-3.529152 5.8146435-3.529152 12.280254-.009949 1.1100553-.842846 1.8704646-.857059.1591885.062538-6.319214 1.735439-9.051002 3.512096-12.6412707.82579-1.471072 1.323254-.864166.874115.2018282z"/><path d="m242.987754 12.7879429c-1.428433 2.4233603-4.868041 6.8436831-5.436572 13.2851311-.105178 1.1043701-1.003455 1.7880277-.867007.0810156.619697-6.2879448 3.368541-10.2235956 5.455047-13.6447265.946603-1.3914779 1.391478-.7433533.848532.2785798z"/><path d="m241.876277 11.5201204c-1.627418 2.2940197-6.921856 7.6026711-8.029069 13.9744742-.198986 1.0901567-1.151274 1.6984841-.871273.0085279 1.145589-6.2154573 5.709466-11.1005537 8.075973-14.3312269 1.060309-1.30904096 1.448331-.6253833.824369.3482248z"/><path d="m240.884192 10.1059014c-1.933004 2.042445-8.245111 8.8122192-10.234966 14.9637167-.352489 1.051781-1.380109 1.5208185-.864167-.1137061 2.006912-5.992309 7.534447-12.4465489 10.331617-15.31194152 1.235131-1.14700983 1.522239-.4150271.767516.46193092z"/></g></svg>

<?xml version="1.0" encoding="UTF-8" standalone="no"?>
<svg width="256px" height="170px" viewBox="0 0 256 170" version="1.1" xmlns="http://www.w3.org/2000/svg" xmlns:xlink="http://www.w3.org/1999/xlink" preserveAspectRatio="xMidYMid">
	<g>
		<path d="M250.391638,0.00446862369 C246.441675,0.130682345 247.690863,1.26880888 239.155816,3.36921556 C230.536983,5.49024566 220.008925,4.83986124 210.727768,8.73228955 C183.021866,20.351627 177.463048,60.0648737 152.275749,74.2909368 C133.44887,84.9252955 114.454287,85.7734716 97.3770448,91.1247628 C86.1542572,94.6439652 73.8775566,101.861116 63.7093926,110.623574 C55.8167711,117.427461 55.6106931,123.409835 47.3641472,131.94346 C38.5434001,141.071213 12.3067939,132.097702 0.415983224,146.067884 C4.24645595,149.940996 5.92576646,151.025838 13.4744129,150.020946 C11.9115659,152.983116 2.69890233,155.479419 4.50229457,159.836976 C6.39984964,164.42206 28.6722079,167.530243 48.9187222,155.306501 C58.3477968,149.613736 65.8580959,141.408437 80.5432186,139.449836 C99.5463429,136.917034 121.437616,141.074426 143.43688,144.24681 C140.174937,153.972942 133.625839,160.44104 128.379711,168.187265 C126.755136,169.936917 131.642705,170.133045 137.21858,169.075594 C147.248876,166.59538 154.477397,164.598418 162.047364,160.192308 C171.347098,154.778478 172.756356,140.898537 184.166744,137.895261 C190.524334,147.666875 207.815514,149.975122 218.54506,142.159239 C209.130198,139.494252 206.528135,119.454271 209.70619,110.623574 C212.716558,102.264758 215.69108,88.8936369 218.722725,77.8442509 C221.977561,65.9776028 223.178339,51.0207794 227.117429,44.9760945 C233.043861,35.8817563 239.592335,32.7587342 245.277595,27.6305201 C250.962841,22.5023059 256.166669,17.510397 255.995897,5.77598898 C255.940891,1.99639972 253.986654,-0.110417131 250.391638,0.00446862369 L250.391638,0.00446862369 L250.391638,0.00446862369 Z" fill="#002B64"></path>
		<path d="M8.59429122,159.000881 C23.012219,161.066067 31.7803771,159.000881 43.3584961,153.979338 C53.2097044,149.706833 62.7240586,140.898877 74.3576093,137.165055 C91.4433653,131.683002 110.179281,137.172162 128.443316,138.266583 C132.890644,138.533792 137.309545,138.536635 141.671594,138.061911 C148.475479,133.880371 148.334769,118.238682 154.956725,116.805986 C154.762003,138.751254 145.765012,151.899938 136.355836,164.632173 C156.186171,161.130027 168.052819,149.659929 176.067675,134.340881 C178.499564,129.695989 180.57612,124.698608 182.412473,119.461023 C185.25086,121.639915 183.64192,128.268978 185.068931,131.860668 C198.727871,124.252312 206.549426,106.887975 211.728736,89.3260752 C217.721046,69.0011179 220.174254,48.420322 224.038839,42.4066929 C227.811037,36.536618 233.681112,32.9179227 239.03951,29.1599376 C245.128469,24.8874326 250.559354,20.4344193 251.49743,12.2930657 C245.07588,11.6989516 243.590595,10.2136662 242.641149,6.97730766 C239.42611,8.78949791 236.469753,9.17751982 233.129638,9.27701262 C230.231554,9.36513481 227.047785,9.23579417 223.159038,9.63518669 C190.998702,12.9383476 186.912391,48.3847888 166.298904,68.4794913 C164.799406,69.9406141 163.177673,71.3036654 161.463554,72.5828586 C154.244641,77.9625763 145.38836,81.8072623 137.244164,84.9199655 C124.061369,89.9571438 111.528119,90.3153178 99.1597425,94.6631531 C90.080314,97.8540293 80.854489,102.483287 73.3967931,107.587268 C71.5320138,108.862197 69.7752553,110.168395 68.159208,111.490228 C63.7829462,115.070547 60.910447,119.043152 58.1317553,123.129463 C55.2663627,127.340852 52.4990416,131.673053 48.280547,135.811953 C41.4468131,142.522032 15.9112758,137.769119 6.92139088,143.991683 C5.91935628,144.683868 5.1234139,145.515343 4.58188881,146.513114 C9.48688374,148.741752 12.7630394,147.374437 18.4057024,147.9984 C19.1462131,153.352533 6.76362374,156.534881 8.59429122,159.000881 L8.59429122,159.000881 L8.59429122,159.000881 Z" fill="#FFFFFF"></path>
		<path d="M203.435102,120.426045 C203.81886,126.569015 207.384967,138.756883 210.533202,141.718926 C204.367492,143.218424 193.745925,140.741054 191.021244,136.391797 C192.42125,130.11238 199.706965,124.371646 203.435102,120.426045 L203.435102,120.426045 L203.435102,120.426045 Z" fill="#FFFFFF"></path>
		<path d="M212.467627,22.9347869 C217.020133,26.8874937 226.572863,23.7150948 224.865851,15.8508998 C217.791913,15.2653135 213.694231,17.6659326 212.467627,22.9347869 L212.467627,22.9347869 L212.467627,22.9347869 Z" fill="#002B64"></path>
		<path d="M244.207251,13.744495 C242.996281,16.2844041 240.678099,19.5591385 240.678099,26.024749 C240.66815,27.1348043 239.835253,27.8952136 239.82104,26.1839375 C239.883578,19.8647235 241.556479,17.1329355 243.333136,13.5426668 C244.158926,12.0715948 244.65639,12.6785008 244.207251,13.744495 L244.207251,13.744495 L244.207251,13.744495 Z" fill="#002B64"></path>
		<path d="M242.987754,12.7879429 C241.559321,15.2113032 238.119713,19.631626 237.551182,26.073074 C237.446004,27.1774441 236.547727,27.8611017 236.684175,26.1540896 C237.303872,19.8661448 240.052716,15.930494 242.139222,12.5093631 C243.085825,11.1178852 243.5307,11.7660098 242.987754,12.7879429 L242.987754,12.7879429 L242.987754,12.7879429 Z" fill="#002B64"></path>
		<path d="M241.876277,11.5201204 C240.248859,13.8141401 234.954421,19.1227915 233.847208,25.4945946 C233.648222,26.5847513 232.695934,27.1930787 232.975935,25.5031225 C234.121524,19.2876652 238.685401,14.4025688 241.051908,11.1718956 C242.112217,9.86285464 242.500239,10.5465123 241.876277,11.5201204 L241.876277,11.5201204 L241.876277,11.5201204 Z" fill="#002B64"></path>
		<path d="M240.884192,10.1059014 C238.951188,12.1483464 232.639081,18.9181206 230.649226,25.0696181 C230.296737,26.1213991 229.269117,26.5904366 229.785059,24.955912 C231.791971,18.963603 237.319506,12.5093631 240.116676,9.64397048 C241.351807,8.49696065 241.638915,9.22894338 240.884192,10.1059014 L240.884192,10.1059014 L240.884192,10.1059014 Z" fill="#002B64"></path>
	</g>
</svg>
